ES2T1/53/aimg/i5-dialogo2.svg

<svg clip-rule="evenodd" fill-rule="evenodd" stroke-miterlimit="10" viewBox="0 0 64 59" xmlns="http://www.w3.org/2000/svg"><g fill-rule="nonzero" transform="translate(-119 -8)"><path d="m163.896 15.832h-25.606c-6.354 0-11.55 5.198-11.55 11.55v.895c0 5.131 3.391 9.505 8.042 10.999-.953 3.515-1.907 7.031-2.86 10.545 3.057-3.07 5.821-6.427 8.282-9.994h19.674c-3.191 7.448-8.004 14.199-14.044 19.601 8.464-2.836 15.322-9.304 20.32-16.701.748-1.107 1.479-2.333 1.706-3.62 4.412-1.627 7.586-5.87 7.586-10.83v-.895c0-6.352-5.197-11.55-11.55-11.55z" fill="#fff" stroke="#231f20" stroke-width="1.44"/><g fill="#231f20"><path d="m133.506 27.125h1.039v-1.251h-1.039zm0 5.871h1.039v-5.111h-1.039z"/><path d="m137.211 31.11-.029-6.006 2.358 6.006h.742l2.358-6.006-.029 6.006h1.049v-7.123h-1.55l-2.185 5.515-2.213-5.515h-1.56v7.123z"/><path d="m150.34 25.874h-1.001v.924c-.241-.501-.905-1.078-1.945-1.078-1.52 0-2.685 1.174-2.685 2.772 0 1.463 1.001 2.772 2.685 2.772.828 0 1.579-.366 1.945-1.069v.915h1.001zm-4.63 2.627c0-.981.712-1.848 1.81-1.848.837 0 1.424.472 1.674 1.078.116.241.164.511.154.78-.009.27-.067.539-.183.78-.259.596-.827 1.039-1.626 1.039-1.271 0-1.819-1.039-1.829-1.819z"/><path d="m151.658 31.11h1.001v-2.868c0-.424.087-.79.279-1.069.174-.289.52-.52.992-.51.491.01.799.212.991.52.173.289.222.606.212 1.039v2.888h1.011v-2.888c0-.442.028-.731.24-1.058.193-.318.568-.501 1.011-.501.471 0 .751.164.933.433.231.299.289.732.289 1.165v2.849h1.001v-2.888c0-1.001-.115-1.501-.577-1.973-.385-.394-.924-.529-1.406-.529-.567 0-1.049.212-1.386.548-.182.183-.288.366-.375.52-.058-.096-.202-.375-.337-.51-.366-.414-.866-.558-1.347-.558-.761 0-1.367.452-1.588.895v-.741h-.944z"/><path d="m166.231 25.874h-1.001v.924c-.241-.501-.905-1.078-1.945-1.078-1.52 0-2.685 1.174-2.685 2.772 0 1.463 1.001 2.772 2.685 2.772.828 0 1.579-.366 1.945-1.069v.915h1.001zm-4.63 2.627c0-.981.712-1.848 1.809-1.848.838 0 1.425.472 1.675 1.078.116.241.164.511.154.78-.009.27-.067.539-.183.78-.26.596-.827 1.039-1.626 1.039-1.271 0-1.819-1.039-1.829-1.819zm.77-3.85.308.616 2.329-1.174-.337-.731z"/><path d="m168.858 23.987h-1.039v5.111h1.039zm0 5.872h-1.039v1.251h1.039z"/></g></g></svg>

<?xml version="1.0" encoding="UTF-8" standalone="no"?>
<!DOCTYPE svg PUBLIC "-//W3C//DTD SVG 1.1//EN" "http://www.w3.org/Graphics/SVG/1.1/DTD/svg11.dtd">
<svg width="100%" height="100%" viewBox="0 0 64 59" version="1.1" xmlns="http://www.w3.org/2000/svg" xmlns:xlink="http://www.w3.org/1999/xlink" xml:space="preserve" xmlns:serif="http://www.serif.com/" style="fill-rule:evenodd;clip-rule:evenodd;stroke-miterlimit:10;">
    <g transform="matrix(1,0,0,1,-119,-8)">
        <g id="dialogo">
            <path d="M163.896,15.832L138.29,15.832C131.936,15.832 126.74,21.03 126.74,27.382L126.74,28.277C126.74,33.408 130.131,37.782 134.782,39.276C133.829,42.791 132.875,46.307 131.922,49.821C134.979,46.751 137.743,43.394 140.204,39.827L159.878,39.827C156.687,47.275 151.874,54.026 145.834,59.428C154.298,56.592 161.156,50.124 166.154,42.727C166.902,41.62 167.633,40.394 167.86,39.107C172.272,37.48 175.446,33.237 175.446,28.277L175.446,27.382C175.446,21.03 170.249,15.832 163.896,15.832Z" style="fill:white;fill-rule:nonzero;stroke:rgb(35,31,32);stroke-width:1.44px;"/>
            <g>
                <path d="M133.506,27.125L134.545,27.125L134.545,25.874L133.506,25.874L133.506,27.125ZM133.506,32.996L134.545,32.996L134.545,27.885L133.506,27.885L133.506,32.996Z" style="fill:rgb(35,31,32);fill-rule:nonzero;"/>
                <path d="M137.211,31.11L137.182,25.104L139.54,31.11L140.282,31.11L142.64,25.104L142.611,31.11L143.66,31.11L143.66,23.987L142.11,23.987L139.925,29.502L137.712,23.987L136.152,23.987L136.152,31.11L137.211,31.11Z" style="fill:rgb(35,31,32);fill-rule:nonzero;"/>
                <path d="M150.34,25.874L149.339,25.874L149.339,26.798C149.098,26.297 148.434,25.72 147.394,25.72C145.874,25.72 144.709,26.894 144.709,28.492C144.709,29.955 145.71,31.264 147.394,31.264C148.222,31.264 148.973,30.898 149.339,30.195L149.339,31.11L150.34,31.11L150.34,25.874ZM145.71,28.501C145.71,27.52 146.422,26.653 147.52,26.653C148.357,26.653 148.944,27.125 149.194,27.731C149.31,27.972 149.358,28.242 149.348,28.511C149.339,28.781 149.281,29.05 149.165,29.291C148.906,29.887 148.338,30.33 147.539,30.33C146.268,30.33 145.72,29.291 145.71,28.511L145.71,28.501Z" style="fill:rgb(35,31,32);fill-rule:nonzero;"/>
                <path d="M151.658,31.11L152.659,31.11L152.659,28.242C152.659,27.818 152.746,27.452 152.938,27.173C153.112,26.884 153.458,26.653 153.93,26.663C154.421,26.673 154.729,26.875 154.921,27.183C155.094,27.472 155.143,27.789 155.133,28.222L155.133,31.11L156.144,31.11L156.144,28.222C156.144,27.78 156.172,27.491 156.384,27.164C156.577,26.846 156.952,26.663 157.395,26.663C157.866,26.663 158.146,26.827 158.328,27.096C158.559,27.395 158.617,27.828 158.617,28.261L158.617,31.11L159.618,31.11L159.618,28.222C159.618,27.221 159.503,26.721 159.041,26.249C158.656,25.855 158.117,25.72 157.635,25.72C157.068,25.72 156.586,25.932 156.249,26.268C156.067,26.451 155.961,26.634 155.874,26.788C155.816,26.692 155.672,26.413 155.537,26.278C155.171,25.864 154.671,25.72 154.19,25.72C153.429,25.72 152.823,26.172 152.602,26.615L152.602,25.874L151.658,25.874L151.658,31.11Z" style="fill:rgb(35,31,32);fill-rule:nonzero;"/>
                <path d="M166.231,25.874L165.23,25.874L165.23,26.798C164.989,26.297 164.325,25.72 163.285,25.72C161.765,25.72 160.6,26.894 160.6,28.492C160.6,29.955 161.601,31.264 163.285,31.264C164.113,31.264 164.864,30.898 165.23,30.195L165.23,31.11L166.231,31.11L166.231,25.874ZM161.601,28.501C161.601,27.52 162.313,26.653 163.41,26.653C164.248,26.653 164.835,27.125 165.085,27.731C165.201,27.972 165.249,28.242 165.239,28.511C165.23,28.781 165.172,29.05 165.056,29.291C164.796,29.887 164.229,30.33 163.43,30.33C162.159,30.33 161.611,29.291 161.601,28.511L161.601,28.501ZM162.371,24.651L162.679,25.267L165.008,24.093L164.671,23.362L162.371,24.651Z" style="fill:rgb(35,31,32);fill-rule:nonzero;"/>
                <path d="M168.858,23.987L167.819,23.987L167.819,29.098L168.858,29.098L168.858,23.987ZM168.858,29.859L167.819,29.859L167.819,31.11L168.858,31.11L168.858,29.859Z" style="fill:rgb(35,31,32);fill-rule:nonzero;"/>
            </g>
        </g>
    </g>
</svg>
